X: 0
T: For Unto Us A Child Is Born
Z: Georg Frederic Handel
Z: Public Domain
L: 1/4
M: 4/4
V: P1 name="Oboe I"
%%MIDI program 1 68
V: P2 name="Oboe II"
%%MIDI program 2 68
V: P3 name="Bassoon"
%%MIDI program 3 70
V: P4 name="Soprano"
%%MIDI program 4 73
V: P5 name="Alto"
%%MIDI program 5 73
V: P6 name="Tenor"
%%MIDI program 6 70
V: P7 name="Bass"
%%MIDI program 7 60
V: P8 name="Violin I"
%%MIDI program 8 48
V: P9 name="Violin II"
%%MIDI program 9 48
V: P10 name="Viola"
%%MIDI program 10 48
V: P11 name="Cello"
%%MIDI program 11 48
V: P12 name="Harpsichord"
%%MIDI program 12 6
V: P13 name="Harpsichord-2"
%%MIDI program 13 6
V: P14 name="Tempo Track"
%%MIDI program 14 -1
K: G
[V: P1]  d' g/g/ c'/c'/ c'/c'/ | c'/b/z3/ e/ a/f/ | d/d/ g/f/ e/4d/4e/4f/4 e/4g/4f/4g/4 | a/4g/4a/4b/4 a/4b/4g/4a/4 f/4e/4f/4g/4 f/4a/4g/4a/4 | b/4a/4b/4c'/4 b/4c'/4a/4b/4 g/e/- e/a/ | f/d/ g3/ a/ f/8g/8f/8g/8e/8f/8g/4 | g/d/ B/B/ c/c/ c/c/ | c/B/z2 G/F/ | Ez3/ E/ A/G/ | F/F/z2 B/A/ | Gz3/ G/ c/B/ | A/A/z3 |z2 d G/G/ | c/c/ c/c/ B/4A/4B/4c/4 B/4c/4A/4B/4 | G/4F/4G/4A/4 G/4B/4A/4B/4 c/4B/4c/4d/4 c/4d/4B/4c/4 | A/4G/4A/4B/4 A/4c/4B/4c/4 d/4c/4d/4e/4 d/4e/4c/4d/4 | B/4A/4B/4c/4 B/4d/4c/4d/4 e/4d/4e/4f/4 e/4f/4g/4a/4 | fz3 | z4 | z4 | z4 | z4 | z4 | z4 | z4 | z4 | z4 |z A3/4^c/4 B3/4d/4 c3/4e/4 | d3/4f/4 e3/4g/4 f/e/4d/4 ^c/B/ | A4 | A3/4d/4 ^c3/4e/4 d3/4f/4 e3/4d/4 | ^c d/d/ c/c/z | d3/4A/4 Az2 | d3/4A/4 Az2 |z/ A/ A/A/ dz/ d/ | d/d/ g/g/ f/f/z/ d/ | d ^c dz | z4 | z4 | z4 |z d/B/ G/e/ c/A/ | Fz3 | z4 | z4 | z4 | z4 |z A/d/ Bz |z d/g/ f/d/z | d3/4c/4 Bz2 | d3/4c/4 Bz2 |z/ d/ d/d/ gz/ d/ | d/d/ g/g/ e/e/z/ g/ | c3/ c/ Bz |z2 d G/G/ | c/c/ c/c/ c/B/z | z4 | z4 | z4 |z3 B/B/ | cz3/ d/ c3/4B/4 | A/A/z3 | z4 |z G3/4B/4 A3/4c/4 B3/4d/4 | c3/4e/4 d3/4=f/4 e/4d/4c/ e/^f/ | g Gz2 |z3 d/g/ | e g/d/ e/c/z | c3/4G/4 Gz2 | c3/4G/4 Gz2 |z/ G/ G/G/ cz/ c/ | c/c/ c/c/ c B | A3/ A/ Bz |z2 d G/G/ | c/c/ c/c/ B/4A/4B/4c/4 B/4c/4A/4B/4 | G/4F/4G/4A/4 G/4B/4A/4B/4 c/4B/4c/4d/4 c/4d/4B/4c/4 | A/4G/4A/4B/4 A/4c/4B/4c/4 d/4c/4d/4e/4 d/4e/4c/4d/4 | B/4A/4B/4c/4 B/4c/4A/4B/4 c/4B/4c/4d/4 c/4d/4B/4c/4 | A d/c/ Bz |z/ d/ c/B/ A/A/ G3/4B/4 | A3/4c/4 B3/4d/4 c3/4e/4 A3/4c/4 | B3/4d/4 c3/4e/4 d2 | d c3/4A/4 B3/4G/4 c3/4A/4 | d3/4d/4 c3/4B/4 A/A/ d/d/ | d d/d/ d/d/z | d3/4c/4 Bz2 | d3/4c/4 Bz2 |z/ d/ d/d/ gz/ g/ | e/d/ c/B/ A/A/z/ c/ | A3/ A/ Bz/ B/ | e/d/ c/c/ c/B/- B/A/ | A3/ A/ G2 | z4 | z4 | z4 | z4 | z4 | z4 | z4 | z4|]
[V: P2]  Bz3 | d G/G/ c/c/ c/c/ | B/4A/4B/4c/4 B/4c/4A/4B/4 G/4F/4G/4A/4 G/4B/4A/4B/4 | c/4B/4c/4d/4 c/4d/4B/4c/4 A/4G/4A/4B/4 A/4c/4B/4c/4 | d/4c/4d/4e/4 d/4e/4c/4d/4 B/G/ c- | c/d/ B/A/ B A/8B/8A/8B/8G/8A/8G/4 | G G/G/ c/c/ c/c/ | c/B/z2 G/F/ | Ez3/ E/ A/G/ | F/F/z2 B/A/ | Gz3/ G/ c/B/ | A/A/z3 |z2 d G/G/ | c/c/ c/c/ B/4A/4B/4c/4 B/4c/4A/4B/4 | G/4F/4G/4A/4 G/4B/4A/4B/4 c/4B/4c/4d/4 c/4d/4B/4c/4 | A/4G/4A/4B/4 A/4c/4B/4c/4 d/4c/4d/4e/4 d/4e/4c/4d/4 | B/4A/4B/4c/4 B/4d/4c/4d/4 e/4d/4e/4f/4 e/4f/4g/4a/4 | fz3 | z4 | z4 | z4 | z4 | z4 | z4 | z4 | z4 | z4 |z A3/4^c/4 B3/4d/4 c3/4e/4 | d3/4f/4 e3/4g/4 f/e/4d/4 ^c/B/ | A4 | A3/4d/4 ^c3/4e/4 d3/4f/4 e3/4d/4 | ^c d/d/ c/c/z | d3/4A/4 Az2 | d3/4A/4 Az2 |z/ A/ A/A/ dz/ d/ | d/d/ g/g/ f/f/z/ d/ | d ^c dz | z4 | z4 | z4 |z d/B/ G/e/ c/A/ | Fz3 | z4 | z4 | z4 | z4 |z A/d/ Bz |z d/g/ f/d/z | d3/4c/4 Bz2 | d3/4c/4 Bz2 |z/ d/ d/d/ gz/ d/ | d/d/ g/g/ e/e/z/ g/ | c3/ c/ Bz |z2 d G/G/ | c/c/ c/c/ c/B/z | z4 | z4 | z4 |z3 B/B/ | cz3/ d/ c3/4B/4 | A/A/z3 | z4 |z G3/4B/4 A3/4c/4 B3/4d/4 | c3/4e/4 d3/4=f/4 e/4d/4c/ e/^f/ | g Gz2 |z3 d/g/ | e g/d/ e/c/z | c3/4G/4 Gz2 | c3/4G/4 Gz2 |z/ G/ G/G/ cz/ c/ | c/c/ c/c/ c B | A3/ A/ Bz |z2 d G/G/ | c/c/ c/c/ B/4A/4B/4c/4 B/4c/4A/4B/4 | G/4F/4G/4A/4 G/4B/4A/4B/4 c/4B/4c/4d/4 c/4d/4B/4c/4 | A/4G/4A/4B/4 A/4c/4B/4c/4 d/4c/4d/4e/4 d/4e/4c/4d/4 | B/4A/4B/4c/4 B/4c/4A/4B/4 c/4B/4c/4d/4 c/4d/4B/4c/4 | A d/c/ Bz |z/ d/ c/B/ A/A/ G3/4B/4 | A3/4c/4 B3/4d/4 c3/4e/4 A3/4c/4 | B3/4d/4 c3/4e/4 d2 | d c3/4A/4 B3/4G/4 c3/4A/4 | d3/4d/4 c3/4B/4 A/A/ d/d/ | d d/d/ d/d/z | d3/4c/4 Bz2 | d3/4c/4 Bz2 |z/ d/ d/d/ gz/ g/ | e/d/ c/B/ A/A/z/ c/ | A3/ A/ Bz/ B/ | e/d/ c/c/ c/B/- B/A/ | A3/ A/ G2 | z4 | z4 | z4 | z4 | z4 | z4 | z4 | z4|]
[V: P3]  G,/A,/ B,/B,,/ A,,/G,/ F,/D,/ | G,/A,/ B,/B,,/ A,,/G,/ F,/D,/ | G,/G,,/ B,,/G,,/ C,z | A,,z D,z | B,,z E, C,/A,,/ | D,/B,,/ E,/C,/ D,/C,/ D,/D,,/ | G,/A,/ B,/B,,/ A,,/G,/ F,/D,/ | G,z3/ G,/ B,/G,/ | Cz3/ A,,/ C,/A,,/ | D,z3/ B,,/ D,/B,,/ | E,z3/ E,/ A,/G,/ | F,/D,/ D/C/ B, B,,/E,/ | A,,/G,/ F,/D,/ G,/G,,/ B,,/G,,/ | A,,/G,/ F,/D,/ G, G,,/B,,/ | C,z A,,z | D,z B,,z | E,z C,z | D,z/ E,/ F,/E,/ F,/B,/ | E,z/ E,/ D, F,,/B,,/ | E,,/D,/ ^C,/A,,/ D,z | G,,z E,,z | A,,z F,,z | B,,z G,,z | A,,/E,/ A,/G,/ F,/E,/ F,/D,/ | G,/B,,/ D,/B,,/ G,,/G,/ E,/G,/ | A, F, G, E, | F, ^C, D, E, | F,/D,/ A,2 G, | F, ^C, D, E, | ^C, A,,3/4C,/4 B,,3/4D,/4 C,3/4E,/4 | D,3/4F,/4 E,3/4G,/4 F,3/4A,/4 G,3/4B,/4 | A, F,/D,/ A,/A,,/z | D3/4D,/4 D,z2 | D3/4D,/4 D,z2 |z/ D,/ D,/D,/ Dz/ D/ | B,/B,/ G,/G,/ D/D,/z/ F,/ | G, A, D,z/ F,/ | E,/D/ ^C/A,/ D, B,,/G,,/ | A,,/G,/ F,/D,/ G, G,, | C,z A,,z | D, B,, E,/C,/ A,,/C,/ | D, G,, C,3/ A,,/ | B,,/G,,/ D,2 C, | B,, F, G,/G,,/ A,, | B,,/G,,/ D,2 C, | B,, F,, G,, C, | D, D,, G,, B,/G,/ | D B,/G,/ D/D,/z | G,3/4G,,/4 G,,z2 | G,3/4G,,/4 G,,z2 |z/ G,/ G,/G,/ B,z/ G,/ | G,/G,/ G,/G,/ C/C,/z/ B,/ | A,3/ A,/ G, B,,/E,/ | A,,/G,/ F,/D,/ G,/A,/ B,/B,,/ | A,,/G,/ F,/D,/ G, C,/C,/ | =F,/F,/ F,/F,/ F,/E,/ E,/E,/ | D,z/ G,/ C,z | =F,z D,z | G,z E,z | A,z A,,z/ C,/ | D, B,, F,, G,, | E, B,, C, A,, | G,, G, =F, D, | E, B,, C, A,, | B,, G,, A,, B,, | C, =F, G, B, | C/C,/ E,/G,/ C/C,/z | C3/4C,/4 C,z2 | C3/4C,/4 C,z2 |z/ C,/ C,/C,/ Cz/ C/ | C/C/ C/C/ D, G,, | D,3/ D,/ G,, G,/G,/ | C/C/ C/C/ C/B,/ B,/B,/ | A,/A,/ D,/D,/ G, G,/G,/ | Cz3/ A,/ A,/A,/ | D/D,/z2 B,/D,/ | E,z/ E,/ A,3/ G,/ | D/D,/ F,/D,/ G,/G,,/ B,,/G,,/ | C,/C,/ C,/C,/ D,/D,/ B,,/G,,/ | F,/D,/ G, C, D, | G,, C, D, D,3/4F,/4 | E,3/4G,/4 F,3/4A,/4 G,3/4B,/4 A,3/4C/4 | B,3/4G,/4 C3/4A,/4 D/D,/ B,,/G,,/ | D,/D/ B,/G,/ D/D,/z | G,3/4G,,/4 G,,z2 | G,3/4G,,/4 G,,z2 |z/ G,/ G,/G,/ B,z/ B,,/ | C,/C,/ C,/C,/ D,/D,/z/ C,/ | D,3/ D,/ G,z/ G,/ | C/B,/ A,/G,/ F,/G,/- G,/C,/ | D, D,, G,,2 | G,/A,/ B,/B,,/ A,,/A,/ D/D,/ | G,/G,,/ B,,/E,/ A,,/A,/ D/D,/ | G,/G,,/ B,,/G,,/ C,/B,,/ C,/E,/ | A,,/A,/ B,/C/ D D, |z/ B,/ C/D/ E E,/G,/ | A,/B,/ C/C,/ D,/C,/ D,/B,,/ | E,/D,/ E,/A,,/ D, G,/C,/ | D, D,, G,,2|]
[V: P4]  z4 | z4 | z4 | z4 | z4 | z4 | d G/G/ c/c/ c/c/ | c/B/z2 G/F/ | Ez3/ E/ A/G/ | F/F/z2 B/A/ | Gz3/ G/ c/B/ | A/A/z3 |z2 d G/G/ | c/c/ c/c/ B/4A/4B/4c/4 B/4c/4A/4B/4 | G/4F/4G/4A/4 G/4B/4A/4B/4 c/4B/4c/4d/4 c/4d/4B/4c/4 | A/4G/4A/4B/4 A/4c/4B/4c/4 d/4c/4d/4e/4 d/4e/4c/4d/4 | B/4A/4B/4c/4 B/4d/4c/4d/4 e/4d/4e/4f/4 e/4f/4g/4a/4 | fz3 | z4 | z4 | z4 | z4 | z4 | z4 | z4 | z4 | z4 |z A3/4^c/4 B3/4d/4 c3/4e/4 | d3/4f/4 e3/4g/4 f/e/4d/4 ^c/B/ | A4 | A3/4d/4 ^c3/4e/4 d3/4f/4 e3/4d/4 | ^c d/d/ c/c/z | d3/4A/4 Az2 | d3/4A/4 Az2 |z/ A/ A/A/ dz/ d/ | d/d/ g/g/ f/f/z/ d/ | d ^c dz | z4 | z4 | z4 |z d/B/ G/e/ c/A/ | Fz3 | z4 | z4 | z4 | z4 |z A/d/ Bz |z d/g/ f/d/z | d3/4c/4 Bz2 | d3/4c/4 Bz2 |z/ d/ d/d/ gz/ d/ | d/d/ g/g/ e/e/z/ g/ | c3/ c/ Bz |z2 d G/G/ | c/c/ c/c/ c/B/z | z4 | z4 | z4 |z3 B/B/ | cz3/ d/ c3/4B/4 | A/A/z3 | z4 |z G3/4B/4 A3/4c/4 B3/4d/4 | c3/4e/4 d3/4=f/4 e/4d/4c/ e/^f/ | g Gz2 |z3 d/g/ | e g/d/ e/c/z | c3/4G/4 Gz2 | c3/4G/4 Gz2 |z/ G/ G/G/ cz/ c/ | c/c/ c/c/ c B | A3/ A/ Bz |z2 d G/G/ | c/c/ c/c/ B/4A/4B/4c/4 B/4c/4A/4B/4 | G/4F/4G/4A/4 G/4B/4A/4B/4 c/4B/4c/4d/4 c/4d/4B/4c/4 | A/4G/4A/4B/4 A/4c/4B/4c/4 d/4c/4d/4e/4 d/4e/4c/4d/4 | B/4A/4B/4c/4 B/4c/4A/4B/4 c/4B/4c/4d/4 c/4d/4B/4c/4 | A d/c/ Bz |z/ d/ c/B/ A/A/ G3/4B/4 | A3/4c/4 B3/4d/4 c3/4e/4 A3/4c/4 | B3/4d/4 c3/4e/4 d2 | d c3/4A/4 B3/4G/4 c3/4A/4 | d3/4d/4 c3/4B/4 A/A/ d/d/ | d d/d/ d/d/z | d3/4c/4 Bz2 | d3/4c/4 Bz2 |z/ d/ d/d/ gz/ g/ | e/d/ c/B/ A/A/z/ c/ | A3/ A/ Bz/ B/ | e/d/ c/c/ c/B/- B/A/ | A3/ A/ G2 | z4 | z4 | z4 | z4 | z4 | z4 | z4 | z4|]
[V: P5]  z4 | z4 | z4 | z4 | z4 | z4 | z4 | z4 | z4 | z4 | z4 | z4 | z4 | z4 | z4 | z4 | z4 |z2 A D/D/ | G/G/ G/G/ G/F/z |z3 D/^C/ | B,z3/ B,/ E/D/ | ^C/C/z2 F/E/ | Dz3/ D/ G/F/ | E/E/z2 A/F/ | Dz3/ B/ G/E/ | ^C/C/z3 | z4 | z4 | z4 |z ^C3/4E/4 D3/4F/4 E3/4G/4 | F3/4A/4 G3/4E/4 A3/4F/4 B3/4G/4 | E A/A/ A/A/z | A3/4G/4 Fz2 | A3/4G/4 Fz2 |z/ F/ F/F/ Az/ A/ | B/B/ B/B/ A/A/z/ A/ | B A A D/D/ | G/G/ G/G/ G/F/z |z3 G/F/ | Ez3/ E/ A/G/ | F/F/z3 | z4 |z D3/4F/4 E3/4G/4 F3/4A/4 | G3/4B/4 A3/4c/4 B/A/4G/4 F/E/ | D4- | D2 D/E/4D/4 C/B,/ | A, A,z D/G/ | F G/B/ A/A/z | B3/4A/4 Gz2 | B3/4A/4 Gz2 |z/ G/ G/G/ Gz/ G/ | G/G/ B/B/ G/G/z/ G/ | G3/ F/ Gz | z4 | z4 |z2 G C/C/ | =F/F/ F/F/ E/4D/4E/4F/4 E/4F/4D/4E/4 | C/4B,/4C/4D/4 C/4E/4D/4E/4 =F/4E/4F/4G/4 F/4G/4E/4F/4 | D/4C/4D/4E/4 D/4=F/4E/4F/4 G/4F/4G/4A/4 G/4A/4F/4G/4 | E/4D/4E/4F/4 E/4G/4F/4G/4 A/4G/4A/4B/4 A/4B/4A/4G/4 | Fz3 | z4 | z4 | z4 |z B,3/4D/4 C3/4E/4 D3/4=F/4 | E3/4G/4 =F3/4E/4 D/D/ G/G/ | G G/G/ G/G/z | G3/4=F/4 Ez2 | G3/4=F/4 Ez2 |z/ E/ E/E/ Gz/ G/ | G/G/ G/G/ F D/G/ | G F Gz |z2 G G/G/ | G/G/ F/F/ G/4F/4G/4A/4 G/4A/4F/4G/4 | E/4D/4E/4F/4 E/4G/4F/4G/4 A/4G/4A/4B/4 A/4B/4G/4A/4 | F/4E/4F/4G/4 F/4A/4G/4A/4 B/4A/4B/4c/4 B/4c/4A/4B/4 | G/4F/4G/4A/4 G/4A/4F/4G/4 E/4D/4E/4F/4 E/4F/4G/4A/4 | F A/A/ Gz |z/ B/ A/G/ F/F/z |z D3/4F/4 E3/4G/4 F3/4A/4 | G3/4B/4 A3/4G/4 F3/4E/4 D |z A3/4F/4 D3/4G/4 F3/4A/4 | G3/4G/4 A3/4G/4 F/F/ G/B/ | A G/B/ A/A/z | B3/4A/4 Gz2 | B3/4A/4 Gz2 |z/ G/ G/G/ Gz/ G/ | G/B/ A/G/ F/F/z/ G/ | F3/ F/ Gz/ G/ | G/G/ F/G/ A/G/- G/G/ | F3/ D/ D2 | z4 | z4 | z4 | z4 | z4 | z4 | z4 | z4|]
[V: P6]  z4 | z4 | z4 | z4 | z4 | z4 | z4 | z4 | z4 | z4 | z4 |z2 D G,/G,/ | C/C/ C/C/ C/B,/z |z3 G,/F,/ | E,z3/ E,/ A,/G,/ | F,/F,/z2 B,/A,/ | G,z3/ G,/ C/B,/ | A,/A,/z3 | z4 | z4 | z4 | z4 | z4 | z4 | z4 |z A,3/4^C/4 B,3/4D/4 C3/4E/4 | D3/4F/4 E3/4G/4 F/E/4D/4 ^C/B,/ | A,4 | A,2z2 | z4 |z3 E3/4G/4 | A, D/F/ E/E/z | F3/4E/4 Dz2 | F3/4E/4 Dz2 |z/ D/ D/D/ Fz/ F/ | G/G/ D/D/ F/F/z/ F/ | E E Fz |z2 D G,/G,/ | C/C/ C/C/ B,/4A,/4B,/4C/4 B,/4C/4A,/4B,/4 | G,/4F,/4G,/4A,/4 G,/4B,/4A,/4B,/4 C/4B,/4C/4D/4 C/4D/4B,/4C/4 | A,z3 | z4 | z4 | z4 | z4 | z4 |z F/F/ Gz |z D/D/ F/F/z | G3/4D/4 Dz2 | G3/4D/4 Dz2 |z/ B,/ B,/B,/ Dz/ B,/ | B,/B,/ D/D/ E/E/z/ D/ | E3/ C/ D G,/G,/ | A,/A,/ A,/A,/ A,/G,/z | z4 | z4 | z4 | z4 |z3 E/D/ | Cz3/ B,/ C/C/ | D/D/ G,3/4B,/4 A,3/4C/4 B,3/4D/4 | C3/4E/4 D3/4=F/4 E/4D/4C/ E/^F/ | G G,z2 | z4 | z4 |z3 D/D/ | E C/B,/ C/C/z | E3/4D/4 Cz2 | E3/4D/4 Cz2 |z/ C/ C/C/ Ez/ E/ | E/E/ E/E/ A, B,/C/ | D3/ D/ Dz |z2 D D/D/ | E/E/ D/D/ D D/D/ | Ez3/ E/ E/E/ | F/F/z2 F/F/ | Gz/ E/ C3/ D/ | D/D/ D/F/ Dz |z/ E/ E/E/ A,/A,/z | z4 |z3 F,3/4A,/4 | G,3/4B,/4 A,3/4C/4 B,3/4D/4 C3/4E/4 | D3/4B,/4 E3/4E/4 F/D/ D/G/ | F D/G/ F/F/z | G3/4D/4 Dz2 | G3/4D/4 Dz2 |z/ B,/ B,/B,/ Dz/ D/ | E/E/ E/E/ A,/A,/z/ E/ | A,3/ D/ Dz/ D/ | E/B,/ C/E/ D/D/- D/E/ | D3/ C/ B,2 | z4 | z4 | z4 | z4 | z4 | z4 | z4 | z4|]
[V: P7]  z4 | z4 | z4 | z4 | z4 | z4 | z4 | z4 | z4 | z4 | z4 | z4 | z4 | z4 | z4 | z4 | z4 | z4 |z2 A, D,/D,/ | G,/G,/ G,/G,/ F,/4E,/4F,/4G,/4 F,/4G,/4E,/4F,/4 | D,/4^C,/4D,/4E,/4 D,/4F,/4E,/4F,/4 G,/4F,/4G,/4A,/4 G,/4A,/4F,/4G,/4 | E,/4D,/4E,/4F,/4 E,/4G,/4F,/4G,/4 A,/4G,/4A,/4B,/4 A,/4B,/4G,/4A,/4 | F,/4E,/4F,/4G,/4 F,/4A,/4G,/4A,/4 B,/4A,/4B,/4^C/4 B,/4C/4D/4E/4 | ^C E/C/ A,z |z/ D/ B,/G,/ E,/E,/z | z4 | z4 | z4 | z4 |z A,,3/4^C,/4 B,,3/4D,/4 C,3/4E,/4 | D,3/4F,/4 E,3/4G,/4 F,3/4A,/4 G,3/4B,/4 | A, F,/D,/ A,/A,,/z | D3/4D,/4 D,z2 | D3/4D,/4 D,z2 |z/ D,/ D,/D,/ Dz/ D/ | B,/B,/ G,/G,/ D/D/z/ F,/ | G, A, D,z | z4 | z4 | z4 | z4 |z B,/G,/ E,/C/ A,/F,/ | D,/D,/z3 | z4 |z D,3/4F,/4 E,3/4G,/4 F,3/4A,/4 | G,3/4B,/4 A,3/4C/4 B,/C/4B,/4 A,/G,/ | F, D,z B,/G,/ | D B,/G,/ D/D,/z | G,3/4G,/4 G,z2 | G,3/4G,/4 G,z2 |z/ G,/ G,/G,/ B,z/ G,/ | G,/G,/ G,/G,/ C/C/z/ B,/ | A,3/ A,/ G,z | z4 |z2 G, C,/C,/ | =F,/F,/ F,/F,/ F,/E,/z |z3 C/B,/ | A,z3/ A,/ D/C/ | B,/B,/z3 | z4 | z4 | z4 | z4 | z4 |z G,3/4B,/4 A,3/4C/4 B,3/4D/4 | C3/4E,/4 A,3/4C/4 B,/G,/ B,/B,/ | C E,/G,/ C/C,/z | C3/4C,/4 C,z2 | C3/4C,/4 C,z2 |z/ C,/ C,/C,/ Cz/ C/ | C/C/ C/C/ D, G, | D,3/ D,/ G, G,/G,/ | C/C/ C/C/ C/B,/ B,/B,/ | A,/A,/ D,/D,/ G, G,/G,/ | Cz3/ A,/ A,/A,/ | D/D/z2 D/D,/ | E,z/ E,/ A,3/ G,/ | D/D/ F,/D,/ G,z |z/ C,/ C,/C,/ D,/D,/z | z4 |z3 D,3/4F,/4 | E,3/4G,/4 F,3/4A,/4 G,3/4B,/4 A,3/4C/4 | B,3/4G,/4 C3/4A,/4 D/D,/ B,/G,/ | D B,/G,/ D/D,/z | G,3/4G,/4 G,z2 | G,3/4G,/4 G,z2 |z/ G,/ G,/G,/ B,z/ B,,/ | C,/C,/ C,/C,/ D,/D,/z/ C,/ | D,3/ D,/ G,z/ G,/ | C/B,/ A,/G,/ F,/G,/- G,/C,/ | D,3/ D,/ G,,2 | z4 | z4 | z4 | z4 | z4 | z4 | z4 | z4|]
[V: P8]  d' g/g/ c'/c'/ c'/c'/ | c'/b/z3/ e/ a/f/ | d/d/ g/f/ e/4d/4e/4f/4 e/4g/4f/4g/4 | a/4g/4a/4b/4 a/4b/4g/4a/4 f/4e/4f/4g/4 f/4a/4g/4a/4 | b/4a/4b/4c'/4 b/4c'/4a/4b/4 g/e/- e/a/ | f/d/ g3/ a/ f/8g/8f/8g/8e/8f/8g/4 | gz3 |z/ d/ g/d/ Bz |z/ e/ g/e/ az |z/ F/ A/F/ Bz |z/ G/ B/G/ cz |z/ d/ f/d/z/ G/ g |z/ e/ az/ d/ g | z4 |z Gz c |z Az d |z Bz e |z Az a |z/ g/ g/g/z/ A/ d | z4 |z Bz e |z ^cz f |z dz g |z ez d | dz ez | ez3 | z4 | z4 | z4 | z4 | z4 |z2z/4 ^c/4d/4e/4 f/4e/4f/4g/4 | a/4g/4a/4g/4 f/4g/4f/4g/4 a/4g/4a/4g/4 f/4g/4f/4g/4 | a/4g/4a/4g/4 f/4g/4f/4g/4 a/4g/4a/4g/4 f/4g/4f/4g/4 | a/4g/4a/4g/4 f/4g/4f/4g/4 a/4g/4a/4g/4 f/4a/4g/4a/4 | b/4a/4b/4^c'/4 b/4c'/4b/4c'/4 d'/a/ d'- | d' ^c' d'z |z2z/ d/ g |z/ e/ a/d/ d g |z ez a | Az3 | z4 | z4 | z4 | z4 | z4 | z4 |z2z/4 d/4e/4f/4 g/4a/4b/4c'/4 | d'/4c'/4d'/4c'/4 b/4c'/4b/4c'/4 d'/4c'/4d'/4c'/4 b/4c'/4b/4c'/4 | d'/4c'/4d'/4c'/4 b/4c'/4b/4c'/4 d'/4c'/4d'/4c'/4 b/4c'/4b/4c'/4 | d'/4c'/4d'/4c'/4 b/4c'/4b/4c'/4 d'/4c'/4d'/4c'/4 b/4c'/4b/4c'/4 | d'/4c'/4d'/4c'/4 b/4a/4b/4a/4 g/4a/4g/4a/4 b/4a/4b/4g/4 | c'/4b/4a/4b/4 c'/4b/4c'/4d'/4 bz | z4 |z2z/ d/ e/g/ | a/g/ a/b/ c'/c/ g |z/ c/ c/B/z/ G/ c |z az =f |z dz e |z ez/ d/ c3/4B/4 | A/D/ dz2 | z4 | z4 | z4 | z4 | z4 |z2z/4 e/4=f/4g/4 a/4g/4a/4f/4 | g/4=f/4g/4f/4 e/4f/4e/4f/4 g/4f/4g/4f/4 e/4f/4e/4f/4 | g/4=f/4g/4f/4 e/4f/4e/4f/4 g/4f/4g/4f/4 e/4f/4e/4f/4 | g/4=f/4g/4f/4 e/4f/4e/4f/4 g/4f/4g/4f/4 e/4f/4e/4f/4 | g/4f/4g/4a/4 g/c'/- c'/4b/4c'/4a/4 b/4a/4b/4c'/4 | a/8b/8a/8b/8a/8b/8a/8b/8 a/8b/8g/8a/8a/ b/4d/4e/4f/4 g/4B/4c/4d/4 | e/4d/4c/4d/4 e/4d/4e/4f/4 g/G/ d/d/ | c'/c'/ c'/c'/ b/4a/4b/4c'/4 b/4c'/4a/4b/4 | g/4f/4g/4a/4 g/4b/4a/4b/4 c'/4b/4c'/4d'/4 c'/4d'/4b/4c'/4 | a/4g/4a/4b/4 a/4c'/4b/4c'/4 d'/4c'/4d'/4e'/4 d'/4e'/4c'/4d'/4 | b/4a/4b/4c'/4 b/4c'/4a/4b/4 c'/4b/4c'/4d'/4 c'/4d'/4b/4c'/4 | a/d/z2 g/=f/ | e/4=f/4d/4e/4 c/4d/4B/4c/4 A/D/ G3/4B/4 | A3/4c/4 B3/4d/4 c3/4e/4 A3/4c/4 | B3/4d/4 c3/4e/4 d2- | d c'3/4a/4 b3/4g/4 c'3/4a/4 | d'3/4d'/4 c'3/4b/4 a/4d/4e/4f/4 g/4a/4b/4c'/4 | a/4d/4e/4f/4 g/4a/4b/4c'/4 a/4d/4e/4f/4 g/4a/4b/4c'/4 | d'/4c'/4d'/4c'/4 b/4c'/4b/4c'/4 d'/4c'/4d'/4c'/4 b/4c'/4b/4c'/4 | d'/4c'/4d'/4c'/4 b/4c'/4b/4c'/4 d'/4c'/4d'/4c'/4 b/4c'/4b/4c'/4 | d'/4c'/4d'/4c'/4 b/4a/4b/4a/4 g/4f/4g/4f/4 e/4d/4e/4d/4 | c/4B/4c/4B/4 A/4G/4A/4G/4 F/4a/4g/4f/4 g/e/ | f/8g/8f/8g/8f/8g/8f/8g/8 f/8g/8e/8f/8f/ g/d/ g/f/ | e/d/ c3/ B/- B/A/ | A/8B/8A/8B/8A/8B/8A/8B/8 A/8B/8G/8A/8A/ B/4D/4E/4F/4 G/4A/4B/4c/4 | d3/ G/ c/c/ c/c/ | c/B/ g g/f/4e/4 f/4g/4e/4f/4 | g/d/ g/f/ e/4d/4e/4f/4 e/4g/4f/4g/4 | a/4g/4a/4b/4 a/4b/4g/4a/4 f/4e/4f/4g/4 f/4a/4g/4a/4 | b/4a/4b/4c'/4 b/4c'/4a/4b/4 g/4f/4g/4a/4 g/4a/4f/4g/4 | e/4f/4d/4e/4 c/4d/4B/4c/4 A/D/ d- | d/G/ c3/ d/ B/A/ | A/8B/8A/8B/8A/8B/8A/8B/8 A/8B/8G/8A/8G/ G2|]
[V: P9]  Bz3 | d G/G/ c/c/ c/c/ | B/4A/4B/4c/4 B/4c/4A/4B/4 G/4F/4G/4A/4 G/4B/4A/4B/4 | c/4B/4c/4d/4 c/4d/4B/4c/4 A/4G/4A/4B/4 A/4c/4B/4c/4 | d/4c/4d/4e/4 d/4e/4c/4d/4 B/G/ c- | c/d/ B/A/ B A/8B/8A/8B/8G/8A/8G/4 | Gz3 |z/ B/ d/B/ Dz |z/ c/ e/c/ Cz |z/ D/ F/D/ dz |z/ E/ G/E/ ez |z/ A/ d/A/z/ D/ d |z/ c/ cz/ B/ B | z4 |z Ez A |z Fz B |z Gz c |z Fz d |z/ d/ ^c/c/z/ d/ f | z4 |z Dz G |z Ez A |z Fz B |z ^cz A | Bz Bz | ^cz3 | z4 | z4 | z4 | z4 | z4 |z2z/4 A/4B/4^c/4 d/4c/4d/4e/4 | f/4e/4f/4e/4 d/4e/4d/4e/4 f/4e/4f/4e/4 d/4e/4d/4e/4 | f/4e/4f/4e/4 d/4e/4d/4e/4 f/4e/4f/4e/4 d/4e/4d/4e/4 | f/4e/4f/4e/4 d/4e/4d/4e/4 f/4e/4f/4e/4 d/4f/4e/4f/4 | g/4f/4g/4a/4 g/4a/4g/4a/4 f/4e/4f/4g/4 f/4g/4f/4g/4 | e e fz |z2z/ A/ d |z/ c/ c/A/ B B |z Gz c | Fz3 | z4 | z4 | z4 | z4 | z4 | z4 |z2z/4 f/4g/4a/4 g/4f/4g/4a/4 | b/4a/4b/4a/4 g/4a/4g/4a/4 b/4a/4b/4a/4 g/4a/4g/4a/4 | b/4a/4b/4a/4 g/4a/4g/4a/4 b/4a/4b/4a/4 g/4a/4g/4a/4 | b/4a/4b/4a/4 g/4a/4g/4a/4 b/4a/4b/4a/4 g/4a/4g/4a/4 | b/4a/4b/4a/4 g/4f/4g/4f/4 e/4f/4e/4f/4 g/4f/4g/4d/4 | e/4d/4c/4d/4 e/4d/4e/4f/4 gz | z4 |z2z/ B/ c/e/ | c/B/ c/d/ G/G/ e |z/ D/ D/D/z/ E/ G |z =Fz A |z Bz B |z cz/ B/ A/4B/4A/4G/4 | F/F/ Gz2 | z4 | z4 | z4 | z4 | z4 |z2z/4 c/4d/4e/4 =f/4e/4f/4d/4 | e/4d/4e/4d/4 c/4d/4c/4d/4 e/4d/4e/4d/4 c/4d/4c/4d/4 | e/4d/4e/4d/4 c/4d/4c/4d/4 e/4d/4e/4d/4 c/4d/4c/4d/4 | e/4d/4e/4d/4 c/4d/4c/4d/4 e/4d/4e/4d/4 c/4d/4c/4d/4 | e/4d/4e/4f/4 e/4f/4g/4e/4 f/4g/4a/4f/4 d/g/ | g f g/d/ B/B/ | Gz d' g/g/ | g/g/ f/f/ g/4f/4g/4a/4 g/4a/4f/4g/4 | e/4d/4e/4f/4 e/4g/4f/4g/4 a/4g/4a/4b/4 a/4b/4g/4a/4 | f/4e/4f/4g/4 f/4a/4g/4a/4 b/4a/4b/4c'/4 b/4c'/4a/4b/4 | g/4f/4g/4a/4 g/4a/4f/4g/4 e/4d/4e/4f/4 e/4f/4g/4a/4 | f/f/z2 d/B/ | G/B/ A/4B/4G/4A/4 F/F/z |z d3/4f/4 e3/4g/4 f3/4a/4 | g3/4b/4 a3/4g/4 f3/4e/4 d |z a3/4f/4 d3/4G/4 f3/4A/4 | g3/4b/4 a3/4g/4 f/4f/4g/4a/4 d/4f/4g/4a/4 | f/4f/4g/4a/4 d/4f/4g/4a/4 f/4f/4g/4a/4 g/4f/4g/4a/4 | b/4a/4b/4a/4 g/4a/4g/4a/4 b/4a/4b/4a/4 g/4a/4g/4a/4 | b/4a/4b/4a/4 g/4a/4g/4a/4 b/4a/4b/4a/4 g/4a/4g/4a/4 | b/4a/4b/4a/4 g/4f/4g/4f/4 b/4a/4b/4a/4 g/4f/4g/4f/4 | e/4d/4e/4d/4 c/4B/4c/4B/4 A/4c/4B/4A/4 B/c/ | A/8B/8A/8B/8A/8B/8A/8B/8 A/8B/8G/8A/8A/ B/B/ d/B/ | G/G/ F/G/ A/G/- G/G/ | F/8G/8F/8G/8F/8G/8F/8G/8 F/8G/8E/8F/8F/ G3/4D/4 E/4F/4G/4A/4 | B g3/ G/ F | d'z/ g/ c'/c'/ c'/c'/ | c'/b/z2 e/d/ | c/4B/4c/4d/4 c/4d/4B/4c/4 A/4G/4A/4B/4 A/4c/4B/4c/4 | d/4c/4d/4e/4 d/4e/4c/4d/4 B/4A/4B/4c/4 B/4c/4A/4B/4 | c/4d/4B/4c/4 A/4B/4G/4A/4 Fz/ D/ | G3/ E/ F G | G F G2|]
[V: P10]  G D/D/ E/E/ D/F/ | G D/D/ E/A/ D/A/ | G/G/ D/D/ cz | Ez Fz | Fz G A | A/B/ G/E/ D3/ c/ | Bz3 |z/ G/ B/G/ G,z |z/ G/ c/C/ Ez |z/ A,/ D/A/ Fz |z/ B,/ E/B/ Gz |z/ D/ A/F/z/ B,/ B |z/ E/ Dz/ D/ D | z4 |z Cz E |z Dz F |z Ez G |z Dz A |z/ B,/ E/E/z/ F/ A | z4 |z G,z B, |z A,z ^C |z B,z D |z Az F | Gz Gz | Az3 | z4 | z4 | z4 | z4 | z4 | z4 | d3/4A/4 Az2 | d3/4A/4 Az2 |z/ A/ A/A/ dz/ d/ | D/D/ D/G/ A/A/z/ A/ | B A Az |z2z/ F/ B |z/ A/ D/F/ G D |z Cz E | Dz3 | z4 | z4 | z4 | z4 | z4 | z4 | z4 | G3/4D/4 Dz2 | G3/4D/4 Dz2 |z/ G/ G/G/ dz/ D/ | G/G/ D/D/ c/c/z/ G/ | G/G/ G/F/ dz | z4 |z2z/ G/ G/c/ | A =F/F/ G/G/ c |z/ =F/ G,/G,/z/ C/ E |z cz D |z Gz G |z Az/ E/ E/E/ | F/F/ Dz2 | z4 | z4 | z4 | z4 | z4 | z4 | c3/4G/4 Gz2 | c3/4G/4 Gz2 |z/ c/ G/G/ cz/ G/ | c/c/ c/E/ A G/D/ | d3/ d/ D/G/ D/G/ | G/4F/4E/4F/4 G/4F/4G/4A/4 D B/B/ | E/A/ A/D/ D D/D/ | E c/c/ A/E/ E/E/ | d d/d/ D F/F/ | Gz/ G/ A3/ d/ | d/A/z2 G/D/ | E/G/ E/E/ A,/D/z | z4 |z3 F3/4A/4 | G3/4B/4 A3/4c/4 B3/4D/4 C3/4E/4 | D3/4D/4 E3/4E/4 F/D/ d/d/ | d D/d/ d/A/z | G3/4D/4 Dz2 | G3/4D/4 Dz2 |z/ D/ D/D/ dz/ G/ | G/G/ E/E/ F/D/z/ G/ | D3/ D/ D/D/ B/D/ | E/G/ C/E/ D/D/- D/E/ | D3/ D/ D2 | G3/ D/ E/A,/ A/A/ | G D/B/ A/A/ A/A/ | G d/B/ G/4F/4G/4A/4 G/G/ | Ez/ E/ F d |z/ F/ B/F/ Gz/ E/ | Ez/ E/ Fz/ F/ | E3/ C/ A,/D/ D/E/ | A, D B,2|]
[V: P11]  G,/A,/ B,/B,,/ A,,/G,/ F,/D,/ | G,/A,/ B,/B,,/ A,,/G,/ F,/D,/ | G,/G,,/ B,,/G,,/ C,z | A,,z D,z | B,,z E, C,/A,,/ | D,/B,,/ E,/C,/ D,/C,/ D,/D,,/ | G,z A,,/G,/ F,/D,/ | G,z3/ G,/ B,/G,/ | Cz3/ A,,/ C,/A,,/ | D,z3/ B,,/ D,/B,,/ | E,z3/ E,/ A,/G,/ | F,/D,/ D/C/ B, B,,/E,/ | A,,/G,/ F,/D,/ G,/G,,/ B,,/G,,/ | A,,/G,/ F,/D,/ G, G,,/B,,/ | C,z A,,z | D,z B,,z | E,z C,z | D,z/ E,/ F,/E,/ F,/B,/ | E,z/ E,/ D, F,,/B,,/ | E,,/D,/ ^C,/A,,/ D,z | G,,z E,,z | A,,z F,,z | B,,z G,,z | A,,/E,/ A,/G,/ F,/E,/ F,/D,/ | G,/B,,/ D,/B,,/ G,,/G,/ E,/G,/ | A, F, G, E, | F, ^C, D, E, | F,/D,/ A,2 G, | F, ^C, D, E, | ^C, A,,3/4C,/4 B,,3/4D,/4 C,3/4E,/4 | D,3/4F,/4 E,3/4G,/4 F,3/4A,/4 G,3/4B,/4 | A, F,/D,/ A,/A,,/z | D3/4D,/4 D,z2 | D3/4D,/4 D,z2 |z/ D,/ D,/D,/ Dz/ D/ | B,/B,/ G,/G,/ D/D,/z/ F,/ | G, A, D,z/ F,/ | E,/D/ ^C/A,/ D, B,,/G,,/ | A,,/G,/ F,/D,/ G, G,, | C,z A,,z | D, B,, E,/C,/ A,,/C,/ | D, G,, C,3/ A,,/ | B,,/G,,/ D,2 C, | B,, F, G,/G,,/ A,, | B,,/G,,/ D,2 C, | B,, F,, G,, C, | D, D,, G,, B,/G,/ | D B,/G,/ D/D,/z | G,3/4G,,/4 G,,z2 | G,3/4G,,/4 G,,z2 |z/ G,/ G,/G,/ B,z/ G,/ | G,/G,/ G,/G,/ C/C,/z/ B,/ | A,3/ A,/ G, B,,/E,/ | A,,/G,/ F,/D,/ G,/A,/ B,/B,,/ | A,,/G,/ F,/D,/ G, C,/C,/ | =F,/F,/ F,/F,/ F,/E,/ E,/E,/ | D,z/ G,/ C,z | =F,z D,z | G,z E,z | A,z A,,z/ C,/ | D, B,, F,, G,, | E, B,, C, A,, | G,, G, =F, D, | E, B,, C, A,, | B,, G,, A,, B,, | C, =F, G, B, | C/C,/ E,/G,/ C/C,/z | C3/4C,/4 C,z2 | C3/4C,/4 C,z2 |z/ C,/ C,/C,/ Cz/ C/ | C/C/ C/C/ D, G,, | D,3/ D,/ G,, G,/G,/ | C/C/ C/C/ C/B,/ B,/B,/ | A,/A,/ D,/D,/ G, G,/G,/ | Cz3/ A,/ A,/A,/ | D/D,/z2 B,/D,/ | E,z/ E,/ A,3/ G,/ | D/D,/ F,/D,/ G,/G,,/ B,,/G,,/ | C,/C,/ C,/C,/ D,/D,/ B,,/G,,/ | F,/D,/ G, C, D, | G,, C, D, D,3/4F,/4 | E,3/4G,/4 F,3/4A,/4 G,3/4B,/4 A,3/4C/4 | B,3/4G,/4 C3/4A,/4 D/D,/ B,,/G,,/ | D,/D/ B,/G,/ D/D,/z | G,3/4G,,/4 G,,z2 | G,3/4G,,/4 G,,z2 |z/ G,/ G,/G,/ B,z/ B,,/ | C,/C,/ C,/C,/ D,/D,/z/ C,/ | D,3/ D,/ G,z/ G,/ | C/B,/ A,/G,/ F,/G,/- G,/C,/ | D, D,, G,,2 | G,/A,/ B,/B,,/ A,,/A,/ D/D,/ | G,/G,,/ B,,/E,/ A,,/A,/ D/D,/ | G,/G,,/ B,,/G,,/ C,/B,,/ C,/E,/ | A,,/A,/ B,/C/ D D, |z/ B,/ C/D/ E E,/G,/ | A,/B,/ C/C,/ D,/C,/ D,/B,,/ | E,/D,/ E,/A,,/ D, G,/C,/ | D, D,, G,,2|]
[V: P12]  [D/G/B/]C/ [B,/D/][D/G/d/] [GAc] [CDA] | [D/G/]C/ [B,/D/][D/G/B/] [EGAc] [D/A/d/][D/F/A/] | [DGB] [D/G/]D/ [CE]z | [EAc]z [DFA]z | [FBd]z [EGB] [EAc] | [D/F/A/][F/B/d/] [E/G/B/][G/A/e/] [DGB] [F/A/]C/ | [B,/D/G/]C/ [B,/D/][D/G/] [CG] D/[D/F/] | [DG]z3/ [D/G/B/] [B,/G/d/][D/G/B/] | [CEG]z3/ [E/A/c/] [A/e/][E/A/c/] | [DFA]z3/ [F/B/d/] [B/f/][F/B/d/] | [EGB]z3/ [E/G/B/] [E/A/c/][A/c/e/] | [DAd] [D/F/A/][C/F/A/d/] [B,Gdg] [G/d/][G/B/] | [GAc] [D/A/][D/F/] [D/G/]B/ [D/G/d/][D/G/B/] | [CGA] D/[D/F/] [B,DG] [D/G/B/][D/G/d/] | [CEG]z [CEA]z | [DF]z [DFB]z | [B,EG]z [EGc]z | [DFA]z/ ^C/ D [A/d/][B,/D/] | [DG]z/ [G/^c/] [G/A/d/]F/ [D/A/][B,/D/F/] | [B,DG] [E/A/]E/ [DF]z | [B,DG]z [EGB]z | [^CA]z [CFA]z | [DFB]z [GBd]z | [EA^c] [C/E/A/][E/A/c/] [DAd] [D/A/][F/A/d/] | [D3/G3/B3/] D/ [B,EG] [EGB] | [^CE] [CFA] [B,DG] [Gce] | [DFA] E [DF] [EG^c] | [DAd] [EA^c] [FBd] [EAce] | [DFA] E [DF] [^CG] | E [^CEA] [DG] E | [DF] [^CG] [Dd] [B,3/4E3/4G3/4B3/4d3/4]B,/4 | [^CEA] [D/A/d/][A/d/f/] [EAce]z | [DAdf]z3 | [DAdfa]z3 |z/ [F/A/d/] [F/A/d/][F/A/d/] [DAdf]z/ [D/A/d/f/] | [B,/D/G/d/g/][B,/D/G/d/g/] [D/d/g/b/][D/d/g/b/] [D/A/d/f/a/]D/z/ [A/d/f/] | [B,GBde] [^CEA^c] [FAd]z/ D/ | [D/G/]D/ [^C/E/A/][E/A/c/] [DAd] [D/G/][D/G/B/] | [CGc] [A/d/][D/F/A/] [DGB] [GBd] | [Ece]z [EAce]z | [DFA] [B,D] [CG] [EAc] | [DFA] [B,DG] [C3/E3/] [C/F/A/] | [B,D] [DF] [B,EG] [DFA] | [DGB] [DAd] [DGB] [CFA] | [B,DG] [DF] [B,E] D | [B,D] [DA] [DGB] [CEA] | [DF] [FAd] [DGB] [B,/D/G/][D/G/B/] | [DFA] [B,/D/G/d/][B,/G/B/d/] [D/F/A/d/]D/z | [D2G2B2d2]z2 | [Ddgb]z3 |z/ [B,/D/G/B/] [B,/D/G/B/][B,/D/G/B/] [B,DGdg]z/ [B,/G/d/g/] | [D/G/B/d/][D/G/B/d/] [B,/G/d/g/][B,/G/d/g/] [CGce]z/ [B,/D/G/B/g/] | [C3/A3/c3/g3/] [C/A/c/f/] [DGBg] [G/d/][G/B/] | [GAc] [D/A/][D/F/] [DG] [B,DGd] | [CEG] [CDA] [DG] [EGc] | [C=FA] [FAd] [CG] [EGc] | [Ac=f]z/ [G/B/d/] [Gce]z | [CAc=f]z [DFA]z | [B,DGB]z [EGB]z | [CEAc]z [EAce]z/ [E/A/c/] | [DFA] [DGd] [DAc] [DGB] | [CG] [D=F] [CE] [CA] | [DGB] [B,DG] [C=FAc] [FBd] | [CG] [DGd] [CGe] [Ace] | [DGd] [DGB] [CEA] [D=FG] | [CE] [CA] [B,DG] [B,DGd] | [C/G/c/e/]C/ [G/c/][B,/G/d/] [C/G/c/e/]C/z | [CGceg]z3 | [C3/4G3/4e3/4g3/4c'3/4]C/4 Cz2 |z/ [C/G/c/e/] [C/G/c/e/][C/G/c/e/] [CEGcg]z/ [C/E/G/c/] | [C/E/G/c/e/][C/E/G/c/e/] [C/E/G/c/e/][C/E/G/c/e/] [Acf] [Bdg] | [Adg] f/[A/d/] [Bdg] B,/B,/ | [C/E/G/c/e/][C/E/] [C/E/][C/E/] [C/D/G/d/g/]B,/ [B,/D/G/d/][B,/D/G/d/] | [E/G/c/][E/G/c/] [D/F/c/][D/F/c/] [DGB] [D/B/d/g/][D/B/d/g/] | [CEGce]z3/ [C/c/e/a/] [C/c/e/a/][C/c/e/a/] | [D/A/d/f/]D/z2 [B,/D/B/d/f/][D/B/d/f/] | [GBg]z/ [G/B/e/] [C3/E3/c3/] [D/G/B/] | [DFA] D/[D/F/] [B,DG] [D/G/d/][D/G/B/] | [CEG] [EAc] [DFA] [B,DG] | [DA] [DGB] [EGc] [DA] | [DGB] [CEA] [DF] [Dd] | [Dd] [DAc] [B,3/4D3/4B3/4]B,/4 [C3/4F3/4A3/4]C/4 | [B,3/4D3/4G3/4][D/4G/4B/4d/4] [C3/4E3/4A3/4c3/4][C/4G/4B/4] [DFA] [D/G/B/][D/G/B/d/] | [D/F/A/d/]D/ [B,/D/G/B/d/][D/B/d/g/] [D/A/d/f/]D/z | [B2d2g2]z2 | [DBdgb]z3 |z/ [B,/D/G/] [B,/D/G/][B,/D/G/] [B,DGd]z/ [G/d/g/] | [G3/c3/e3/] [G/B/e/] [D/F/A/d/]D/z/ [G/c/e/] | [D3/F3/A3/] [F/A/d/] [B,DGB]z/ [B,/G/d/] | [C/E/G/e/][B,/G/B/d/] [C/F/c/][C/E/G/c/] [D/A/c/][B,/-D/-G/-B/-] [B,/D/G/B/][E/G/A/] | [D3/A3/] [C/F/A/] [B,2D2G2] | [D/G/B/]C/ [B,/D/][D/G/d/] [GAc] [D/F/A/][F/A/d/] | [DGd] [D/G/][B,/E/G/] [CGA] [D/F/A/][D/F/] | [DG] [D/G/d/][D/G/B/] [E/G/c/]D/ E/[G/c/] | [E/A/c/e/]C/ [B,/D/][C/E/G/B/e/] [DFAd] [Adf] |z/ [B,/D/B/d/f/] [C/E/][D/F/A/c/f/] [EGBe] [B/e/g/][B,/B/e/] | [C/E/A/c/][B,/D/] [C/E/][E/G/B/] [F3/A3/] [D/F/B/] | [B,/E/G/]C/ [E/G/][E/A/c/] [DAc] [B,/D/G/B/][G/A/e/] | [GAd] [DF] [D2G2B2]|]
[V: P13]  G,/A,/z/ B,,/ A,,/G,/ F,/D,/ | G,/A,/z/ B,,/ A,,/G,/ F,/D,/ | G,/G,,/ [B,,/G,/][G,,/G,/] [C,G,]z | A,,z D,z | B,,z E, C,/A,,/ | D,/B,,/ E,/C,/ D,/C,/ D,/D,,/ | G,/A,/z/ [B,,/G,/] A,,/G,/ [F,/A,/][D,/A,/] | G,z3/ G,/z/ G,/ |z2z/ A,,/ C,/A,,/ | D,z3/ B,,/ D,/B,,/ | E,z3/ E,/ A,/G,/ | F,/D,/z2 B,,/E,/ | A,,/G,/ F,/D,/ G,/G,,/ B,,/G,,/ | A,,/G,/ [F,/A,/][D,/A,/] G, G,,/B,,/ | C,z A,,z | [D,A,]z B,,z | E,z C,z | [D,A,]z/ [E,/G,/] [F,/A,/][E,/G,/] [F,A,] | E,z/ [E,/G,/] [D,A,] [F,,/A,/]B,,/ | E,,/D,/ [^C,/A,/][A,,/A,/] [D,A,]z | [G,,D,]z [E,,E,]z | [A,,E,A,]z [F,,F,]z | [B,,F,]z [G,,G,]z | A,,/E,/ A,/G,/ F,/E,/ F,/D,/ | G,/B,,/ D,/[B,,/G,/] G,,/G,/ E,/G,/ | A, F, G, E, | F, [^C,A,] [D,A,] E, | F,/D,/ A, A, G, | F, [^C,A,] [D,A,] E, | [^C,E,A,] A,,3/4C,/4 B,,3/4D,/4 [C,3/4G,3/4A,3/4]E,/4 | [D,3/4A,3/4]F,/4 [E,3/4G,3/4]G,/4 [F,3/4A,3/4]A,/4 G, | A, [F,/A,/][D,/A,/] A,/[A,,/A,/]z |z3/4 D,/4 D,z2 |z3/4 D,/4 D,z2 |z/ [D,/A,/] [D,/A,/][D,/A,/]z2 |z G,/G,/z/ D,/z/ [F,/A,/] | G, A, [D,A,]z/ [F,/A,/] | [E,G,]z/ A,/ D, B,,/G,,/ | A,,/G,/ [F,/A,/]D,/ G, [G,,G,] | [C,G,]z [A,,A,]z | [D,A,] [B,,G,] [E,/G,/]C,/ A,,/C,/ | D, G,, [C,3/E,3/] A,,/ | [B,,/G,/]G,,/ [D,A,] D, [C,A,] | B,, F, G,/G,,/ A,, | B,,/G,,/ [D,A,] [D,G,] [C,F,A,] | [B,,G,] [F,,A,] G,, C, | [D,A,] [D,,D,] [G,,D,]z/ G,/ |z3/ G,/z/ D,/z | G,3/4G,,/4 G,,z2 | G,3/4[G,,/4G,/4] [G,,G,]z2 |z/ G,/ G,/G,/z3/ G,/ | G,/G,/ G,/G,/z/ C,/z | A,3/ A,/ G, B,,/E,/ | A,,/G,/ F,/D,/ G,/A,/z/ B,,/ | A,,/G,/ F,/D,/ G, C,/C,/ | =F,/F,/ F,/F,/ [F,/G,/]E,/ E,/E,/ | D,z/ G,/ C,z | =F,z D,z | G,z [E,G,]z | A,z [A,,A,]z/ [C,/A,/] | [D,A,] [B,,G,] [F,,D,] [G,,G,] | [E,G,] [B,,G,] [C,G,] [A,,A,] | [G,,D,] G, [=F,A,] [D,F,] | [E,G,] [B,,G,] [C,G,] [A,,A,] | [B,,G,] [G,,D,] [A,,A,] [B,,D,] | [C,G,] [=F,A,] G,z |z/ C,/ [E,/G,/]G,/z/ C,/z |z3/4 C,/4 C,z2 |z3/4 C,/4 C,z2 |z/ C,/ C,/C,/z2 |z2 [D,A,] [G,,G,] | [D,3/A,3/] [D,/A,/] [G,,G,] G,/G,/ | z4 | A,/A,/ [D,/A,/][D,/A,/] G, G,/G,/ |z2z/ A,/ A,/A,/ |z/ D,/z2z/ D,/ | [E,G,]z/ [E,/G,/] A,3/ G,/ |z/ D,/ [F,/A,/][D,/A,/] G,/[G,,/G,/] [B,,/G,/][G,,/G,/] | [C,/G,/][C,/G,/] [C,/E,/][C,/E,/] [D,/A,/]D,/ B,,/G,,/ | [F,/A,/]D,/ G, [C,G,] [D,F,] | [G,,G,] [C,A,] [D,A,] [D,3/4F,3/4]F,/4 | [E,3/4G,3/4]G,/4 [F,3/4A,3/4]A,/4 G, A, |z3/4 G,/4z3/4 A,/4z/ D,/ B,,/G,,/ | D,z/ G,/z/ D,/z | G,3/4G,,/4 G,,z2 | G,3/4[G,,/4G,/4] [G,,G,]z2 |z/ G,/ G,/G,/z3/ [B,,/G,/] | [C,/G,/][C,/G,/] [C,/G,/][C,/G,/] D,/D,/z/ [C,/G,/] | D,3/ [D,/A,/] G,z/ G,/ |z A,/G,/ [F,/A,/]G,/- G,/[C,/G,/] | [D,F,A,] [D,,D,] [G,,2D,2] | G,/A,/z/ B,,/ A,,/A,/z/ D,/ | G,/G,,/ B,,/E,/ A,,/A,/z/ [D,/A,/] | G,/G,,/ B,,/G,,/ C,/B,,/ C,/E,/ | C,/A,/z2 D, |z3 [E,/G,/]G,/ | A,z/ [C,/E,/] [D,/F,/A,/][C,/E,/] [D,/F,/][B,,/D,/] | [E,/G,/][D,/F,/] [E,/G,/][A,,/E,/] [D,F,] G,/[C,/A,/] | [D,A,] [D,,D,] [G,,2D,2]|]
[V: P14]  z4 | z4 | z4 | z4 | z4 | z4 | z4 | z4 | z4 | z4 | z4 | z4 | z4 | z4 | z4 | z4 | z4 | z4 | z4 | z4 | z4 | z4 | z4 | z4 | z4 | z4 | z4 | z4 | z4 | z4 | z4 | z4 | z4 | z4 | z4 | z4 | z4 | z4 | z4 | z4 | z4 | z4 | z4 | z4 | z4 | z4 | z4 | z4 | z4 | z4 | z4 | z4 | z4 | z4 | z4 | z4 | z4 | z4 | z4 | z4 | z4 | z4 | z4 | z4 | z4 | z4 | z4 | z4 | z4 | z4 | z4 | z4 | z4 | z4 | z4 | z4 | z4 | z4 | z4 | z4 | z4 | z4 | z4 | z4 | z4 | z4 | z4 | z4 | z4 | z4 | z4 | z4 | z4 | z4 | z4 | z4 | z4 | z4 |z2z2 | z4|]

